X:1
T:Coventry (Root), CM
T:George Frederick Root (1820-1895)
T:Coventry (Root), CM
T:Public Domain
C:George Frederick Root (1820-1895)
Z:Public Domain
%%score ( 1 2 ) ( 3 4 )
L:1/8
M:3/4
K:C
V:1 treble 
V:2 treble 
V:3 bass 
V:4 bass 
V:1
 [CG]2 | (C2 D2) [Ec]2 | (c2 B2) [Gc]2 | ([FA]2 [EG]2) [DF]2 | ([DF]2 [CE]2) [CG]2 | %5
 (B,2 C2) [DG]2 | ([EA]2 [DG]2) (DC) | [B,G]4 [CE]2 | ([CE]2 [B,D]2) [DF]2 | ([DF]2 [CE]2) [EG]2 | %10
 ([EG]2 [DF]2) [CE]2 | ([CE]2 [B,D]2) [Gd]2 | [Ge]4 G2 | ([FA]2 [EG]2) [FB]2 | [Ec]4 |] %15
V:2
 x2 | G4 x2 | F4 x2 | x6 | x6 | G4 x2 | x4 ^F2 | x6 | x6 | x6 | x6 | x6 | x4 G2 | x6 | x4 |] %15
V:3
 [C,E,]2 | (E,2 F,2) [C,G,]2 | [D,G,]4 [E,G,]2 | (F,2 G,2) [G,,B,]2 | [C,G,]4 [E,G,]2 | %5
 (G,2 A,2) [G,B,]2 | ([C,C]2 [D,B,]2) [D,A,]2 | G,4 [C,G,]2 | [G,,G,]4 G,2 | [C,G,]4 G,2 | %10
 [B,,G,]4 (C,E,) | G,4 [B,D]2 | C2 G,2 [E,C]2 | (F,2 G,2) (DG,) | [C,G,]4 |] %15
V:4
 x2 | C,4 x2 | x6 | C4 x2 | x6 | G,4 x2 | x6 | G,4 x2 | x4 G,2 | x4 G,2 | x4 G,2 | G,4 x2 | C4 x2 | %13
 C4 G,,2 | x4 |] %15

